!!!OTL: 669. Katzenfest.
!!!ARE: Europa, Mitteleuropa, Deutschland, Westfalen, Engste
!!!SCT: K0669
!!!TXL: @@GSW
!!!YEM: Copyright 1995, estate of Helmut Schaffrath.
**kern	**text
*clefG2	*
*M3/4	*
*k[b-e-]	*
*B-:	*
=1	=1
{4dd	Segg
4dd	doch,
8dd	Mu-
8dd	-ſe-
=2	=2
4cc	-kätt-
4cc	-ken,
*	*^
4cc	bo	(wo)
*	*v	*v
=3	=3
4b-	wiſt
4a	du
4b-	hen
=4	=4
2f}	gohn?
{4f	Eck
=5	=5
4dd	well
4dd	no
4dd	det
=6	=6
4cc	Groß-
4cc	-vat-
4cc	-ters
=7	=7
(4b-	Hu-
4a)	.
4b-	-ſe
=8	=8
2f}	gohn,
{4dd	do
=9	=9
4b-	ſchlach-
4a	-tet
4b-	ſe'n
=10	=10
2cc}	Swien,
{4dd	do
=11	=11
4b-	drin-
4a	-ket
4b-	mir
=12	=12
2cc}	Wien,
{4ff	do
=13	=13
4dd	wöll
4cc	wir
4b-	recht
=14	=14
4cc	lu-
4b-	-ſtig
4a	und
=15	=15
2b-	fröh-
4a	-lich
=16	=16
2b-	ſin.
4r}	.
==	==
!!!AGN: Kinder -, Tier - Lied
!!!ONB: ESAC (Essen Associative Code) Database: KINDER
!!!AMT: simple triple
!!!AIN: vox
!!!EED: Helmut Schaffrath
!!!EEV: 1.0
!!Westfalen (Engste).
!!!GTL: VI. Das Kind im Verkehr mit der Natur. A. Verkehr mit der Thierwelt. (Grussliedchen an die Thiere.)
!!!URL-scan: https://archive.org/details/DeutschesKinderliedUndKinderspiel/page/145/mode/1up
!!!ENC: Anna Maria Matuszewska
!!!EEV: 2024/30/08
*-	*-